img/icon-warranty.svg

<svg width="171" height="195" viewBox="0 0 171 195" fill="none" xmlns="http://www.w3.org/2000/svg">
<g clip-path="url(#clip0)">
<path d="M77.6941 174.636C77.5901 174.506 67.1991 161.64 65.0851 158.876C63.7641 157.149 61.7781 156.198 59.4921 156.198C56.9321 156.198 54.6561 157.368 53.9801 157.751L48.4941 160.494C46.7211 160.015 42.9071 158.544 39.2141 154.226C35.9301 150.387 35.9531 145.24 36.1281 143.127L42.0211 137.234C45.1141 134.517 44.4731 130.718 43.2671 128.803L43.0481 128.492C43.0481 128.492 30.1861 112.271 28.3821 109.994C27.3931 108.745 25.9071 108.056 24.1981 108.056C21.3491 108.056 18.3191 110.031 17.4421 110.648C6.55711 118.397 5.85611 125.21 5.81111 125.961L5.78711 126.375L5.86111 126.784C12.2731 162.51 31.8871 177.921 41.3141 185.327C42.4621 186.228 43.4541 187.008 44.1681 187.633C50.7311 193.38 57.9301 194 60.7211 194C63.0961 193.999 65.2011 193.595 66.8101 192.829C71.1761 190.751 76.2351 184.819 77.6821 183.051C80.1831 179.992 78.9651 176.452 77.8501 174.843L77.6941 174.636ZM63.8011 186.509C63.3021 186.746 62.2311 187 60.7201 187C59.1601 187 53.6881 186.666 48.7761 182.368C47.9221 181.621 46.8631 180.789 45.6371 179.825C36.9431 172.995 18.9081 158.824 12.8571 126.141C13.1461 125.162 14.6861 121.203 21.4771 116.37C22.1291 115.917 22.9851 115.466 23.5961 115.228C26.4271 118.8 35.0061 129.62 37.0981 132.258L29.5701 139.785L29.3671 140.84C29.2861 141.262 27.4561 151.249 33.8941 158.777C40.1801 166.126 47.1441 167.444 48.4771 167.633L49.5591 167.787L57.2031 163.964L57.4211 163.846C57.7021 163.679 58.7561 163.198 59.4921 163.198C59.5281 163.198 59.5571 163.199 59.5801 163.201C61.7291 166.001 70.6851 177.098 72.0801 178.825C72.0811 178.829 72.0821 178.832 72.0841 178.835C69.5221 181.93 65.9111 185.504 63.8011 186.509Z" fill="white"/>
<path d="M137.85 65.824C143.362 60.647 145.006 53.849 142.883 45.041C142.676 44.185 142.035 43.5 141.194 43.239C140.352 42.977 139.434 43.179 138.78 43.769L130.559 51.172C129.121 50.377 126.883 48.721 126.094 45.842L132.897 39.113C133.844 38.175 133.889 36.66 133.001 35.667L132.815 35.46C132.622 35.244 132.393 35.064 132.137 34.927C131.977 34.841 128.149 32.811 123.313 32.811C118.604 32.811 114.454 34.732 111.311 38.367C105.311 45.305 106.754 53.409 107.768 56.838L104.28 60.326L93.9962 51.09L98.7132 47.824L78.6712 34.1L68.0702 44.703L81.7942 64.744L85.0602 60.027L94.2972 70.309L91.0022 73.603C89.5022 73.125 87.1192 72.551 84.3392 72.551C78.9102 72.551 74.1032 74.725 70.3772 78.91C70.1062 79.239 63.7782 87.075 67.6262 97.531C67.9102 98.304 68.5572 98.887 69.3552 99.091C70.1512 99.294 71.0002 99.092 71.6192 98.55L79.9142 91.291C81.2372 91.858 83.5362 93.371 84.5732 97.216L77.1892 104.732C76.5552 105.377 76.3192 106.314 76.5722 107.182C76.8252 108.05 77.5262 108.714 78.4072 108.919C78.5172 108.944 81.1312 109.542 84.5822 109.542C91.4222 109.542 96.6942 107.271 99.8272 102.975C103.19 98.362 103.921 93.542 103.821 89.887L120.038 106.104L120.21 106.262C121.731 107.522 124.528 108.987 127.661 108.987C129.888 108.987 132.286 108.246 134.513 106.163L140.031 100.647L140.133 100.543C145.145 95.185 142.391 88.845 140.233 86.241L123.288 69.282C124.315 69.388 125.436 69.463 126.61 69.463C131.498 69.462 135.279 68.238 137.85 65.824ZM84.5512 51.978L81.8172 55.927L74.5412 45.302L79.2722 40.57L89.8972 47.846L85.9472 50.58L100.739 63.866L96.6452 67.959L97.8362 66.767L84.5512 51.978ZM98.1132 85.502C98.2222 85.815 100.728 93.248 95.7852 100.029C93.0152 103.827 88.0372 104.555 84.3852 104.541L89.0882 99.754C89.6542 99.178 89.9082 98.363 89.7682 97.567C87.9772 87.42 80.0232 86.083 79.6852 86.031C78.9562 85.921 78.2142 86.135 77.6582 86.62L71.4542 92.048C70.9322 86.488 73.8672 82.559 74.2132 82.116C76.9342 79.086 80.3402 77.55 84.3382 77.55C87.8532 77.55 90.5692 78.761 90.5872 78.77C91.5402 79.209 92.6632 79.011 93.4052 78.269L112.405 59.269C113.13 58.545 113.339 57.453 112.932 56.513C112.897 56.43 109.438 48.173 115.09 41.637C117.285 39.098 120.051 37.811 123.311 37.811C124.541 37.811 125.694 37.994 126.676 38.232L121.629 43.225C121.078 43.769 120.811 44.537 120.904 45.305C121.916 53.605 129.873 56.382 130.211 56.496C131.066 56.784 132.012 56.59 132.684 55.985L138.733 50.538C139.106 55.402 137.713 59.092 134.424 62.18C132.416 64.067 129.065 64.463 126.606 64.463C122.917 64.463 119.655 63.598 119.624 63.59C118.759 63.354 117.829 63.604 117.194 64.243L98.6942 82.91C98.0232 83.587 97.8012 84.6 98.1132 85.502ZM103.615 87.344C103.615 87.347 103.615 87.349 103.615 87.352C103.615 87.349 103.615 87.347 103.615 87.344ZM103.434 86.223C103.444 86.275 103.454 86.327 103.463 86.381C103.453 86.329 103.443 86.274 103.434 86.223ZM136.525 97.079L131.046 102.555C127.798 105.535 124.146 102.987 123.47 102.468L104.827 83.823L119.768 68.748L117.733 70.801L136.44 89.507C136.9 90.099 139.537 93.794 136.525 97.079ZM121.316 69.025C121.324 69.026 121.332 69.027 121.339 69.029C121.332 69.027 121.324 69.026 121.316 69.025ZM120.473 68.882C120.493 68.886 120.518 68.89 120.539 68.894C120.516 68.89 120.494 68.886 120.473 68.882Z" fill="white"/>
<path d="M104.162 6.00201C67.7542 6.00201 38.2402 35.516 38.2402 71.924C38.2402 105.441 63.2602 133.096 95.6382 137.278V163.502C95.6382 163.502 153.077 142.259 167.607 89.88C167.685 89.597 167.746 89.342 167.818 89.068C167.931 88.644 168.043 88.218 168.148 87.791C168.212 87.528 168.267 87.277 168.326 87.022C169.463 82.171 170.084 77.121 170.084 71.924C170.084 35.516 140.57 6.00201 104.162 6.00201ZM161.51 85.424L161.504 85.451L161.498 85.478L161.469 85.608C161.43 85.778 161.393 85.947 161.35 86.123C161.256 86.499 161.159 86.874 161.049 87.284L160.945 87.684C160.92 87.792 160.892 87.9 160.863 88.008C155.299 108.064 142.343 125.708 122.357 140.45C114.984 145.888 107.949 149.914 102.638 152.625V137.277V131.123L96.5342 130.335C67.2912 126.558 45.2392 101.446 45.2392 71.923C45.2392 39.433 71.6712 13.001 104.161 13.001C136.649 13.001 163.083 39.433 163.083 71.923C163.084 76.432 162.555 80.974 161.51 85.424Z" fill="white"/>
<path d="M54.583 187.998C51.792 187.998 44.5939 187.378 38.0289 181.634C37.3149 181.009 36.3229 180.23 35.1749 179.328C25.749 171.922 6.13395 156.511 -0.278051 120.785L-0.352051 120.376L-0.328051 119.962C-0.284051 119.21 0.41795 112.398 11.3029 104.649C12.1799 104.032 15.2099 102.057 18.0589 102.057C19.7669 102.057 21.2529 102.745 22.2429 103.995C24.0469 106.272 36.909 122.493 36.909 122.493L37.1279 122.804C38.334 124.719 38.9749 128.518 35.882 131.235L29.9889 137.128C29.8139 139.24 29.791 144.388 33.075 148.227C36.767 152.544 40.582 154.016 42.3549 154.495L47.841 151.752C48.5169 151.369 50.7929 150.199 53.353 150.199C55.639 150.199 57.625 151.15 58.9459 152.877C61.0599 155.641 71.4499 168.507 71.5549 168.637L71.7099 168.844C72.8249 170.453 74.0429 173.993 71.5419 177.052C70.0949 178.821 65.0369 184.752 60.6699 186.83C59.063 187.593 56.958 187.997 54.583 187.998ZM6.71995 120.14C12.7709 152.823 30.806 166.994 39.5 173.824C40.726 174.788 41.785 175.62 42.639 176.367C47.5509 180.665 53.0229 180.999 54.583 180.999C56.094 180.999 57.165 180.745 57.664 180.508C59.774 179.503 63.3859 175.929 65.9479 172.834C65.9469 172.831 65.9449 172.828 65.9439 172.824C64.5499 171.097 55.5929 160 53.444 157.2C53.421 157.198 53.3909 157.197 53.3559 157.197C52.6199 157.197 51.5659 157.678 51.285 157.845L51.067 157.963L43.423 161.786L42.341 161.632C41.0079 161.443 34.0439 160.124 27.7579 152.776C21.3199 145.249 23.15 135.261 23.2309 134.839L23.4339 133.784L30.9619 126.257C28.8699 123.618 20.2909 112.799 17.4599 109.227C16.8489 109.464 15.9929 109.915 15.3409 110.369C8.54795 115.202 7.00795 119.161 6.71995 120.14Z" fill="#3A3A3A"/>
<path d="M78.443 103.54C74.991 103.54 72.378 102.942 72.268 102.917C71.387 102.712 70.685 102.048 70.433 101.18C70.181 100.312 70.416 99.374 71.05 98.73L78.434 91.214C77.397 87.369 75.098 85.857 73.775 85.289L65.48 92.548C64.86 93.09 64.012 93.292 63.216 93.089C62.418 92.886 61.772 92.302 61.487 91.53C57.639 81.073 63.967 73.237 64.238 72.908C67.964 68.723 72.771 66.549 78.2 66.549C80.98 66.549 83.362 67.123 84.863 67.601L101.629 50.836C100.616 47.406 99.172 39.302 105.172 32.365C108.315 28.731 112.465 26.809 117.174 26.809C122.011 26.809 125.838 28.838 125.999 28.925C126.254 29.062 126.483 29.242 126.676 29.458L126.862 29.665C127.752 30.658 127.707 32.173 126.758 33.111L119.955 39.84C120.744 42.719 122.983 44.375 124.42 45.17L132.642 37.767C133.296 37.177 134.214 36.975 135.055 37.237C135.897 37.498 136.538 38.182 136.745 39.039C138.868 47.848 137.223 54.645 131.712 59.822C129.142 62.236 125.359 63.46 120.47 63.46C117.681 63.46 115.146 63.053 113.631 62.746L97.127 79.399C97.856 82.58 98.758 90.019 93.688 96.973C90.555 101.269 85.283 103.54 78.443 103.54ZM78.247 98.539C81.898 98.554 86.878 97.825 89.647 94.027C94.591 87.246 92.085 79.813 91.976 79.5C91.663 78.598 91.885 77.585 92.558 76.907L111.058 58.24C111.692 57.601 112.622 57.351 113.488 57.587C113.518 57.595 116.781 58.46 120.47 58.46C122.928 58.46 126.281 58.064 128.288 56.177C131.576 53.089 132.969 49.399 132.597 44.535L126.548 49.982C125.876 50.586 124.931 50.781 124.075 50.493C123.737 50.379 115.78 47.602 114.768 39.302C114.674 38.534 114.941 37.766 115.492 37.222L120.539 32.229C119.558 31.991 118.404 31.808 117.174 31.808C113.915 31.808 111.15 33.096 108.953 35.634C103.302 42.17 106.761 50.427 106.796 50.51C107.201 51.45 106.992 52.543 106.268 53.266L87.268 72.266C86.527 73.008 85.403 73.206 84.451 72.767C84.433 72.759 81.716 71.547 78.201 71.547C74.203 71.547 70.797 73.083 68.076 76.113C67.729 76.555 64.794 80.485 65.317 86.045L71.521 80.617C72.077 80.131 72.819 79.917 73.548 80.028C73.885 80.08 81.839 81.417 83.63 91.564C83.771 92.36 83.518 93.174 82.951 93.751L78.247 98.539Z" fill="#F0C42E"/>
<path d="M78.9209 54.025L88.1579 64.307L91.6979 60.766L78.4129 45.976L75.6779 49.925L68.4019 39.301L73.1339 34.569L83.7589 41.845L79.8089 44.579L94.5999 57.865L98.1409 54.324L87.8579 45.088L92.5749 41.822L72.5329 28.098L61.9319 38.701L75.6559 58.742L78.9209 54.025Z" fill="#3A3A3A"/>
<path d="M117.147 63.28C115.734 63.134 114.507 62.924 113.63 62.746L111.596 64.799L130.302 83.505C130.762 84.097 133.399 87.792 130.386 91.077L124.908 96.553C121.66 99.533 118.007 96.985 117.332 96.466L98.69 77.821L97.127 79.399C97.372 80.469 97.632 82.029 97.682 83.884L113.899 100.102L114.072 100.26C115.593 101.52 118.39 102.985 121.522 102.985C123.75 102.985 126.147 102.244 128.375 100.161L133.893 94.645L133.995 94.542C139.007 89.184 136.252 82.843 134.094 80.239L117.147 63.28Z" fill="#3A3A3A"/>
<path d="M98.0231 7C130.512 7 156.945 33.432 156.945 65.922C156.945 70.43 156.416 74.972 155.372 79.422L155.366 79.449L155.359 79.476L155.33 79.606C155.292 79.776 155.254 79.945 155.212 80.121C155.118 80.497 155.021 80.872 154.91 81.282L154.807 81.682C154.781 81.79 154.753 81.898 154.724 82.006C149.16 102.062 136.204 119.706 116.218 134.448C108.845 139.886 101.81 143.912 96.4991 146.623V131.275V125.121L90.395 124.333C61.152 120.556 39.1011 95.444 39.1011 65.921C39.1021 33.432 65.5341 7 98.0231 7ZM98.0231 0C61.6161 0 32.1021 29.514 32.1021 65.922C32.1021 99.439 57.1221 127.094 89.5 131.276V157.5C89.5 157.5 146.939 136.257 161.47 83.878C161.548 83.595 161.608 83.34 161.68 83.066C161.794 82.642 161.905 82.216 162.011 81.789C162.074 81.526 162.13 81.275 162.188 81.02C163.326 76.169 163.946 71.119 163.946 65.922C163.945 29.514 134.432 0 98.0231 0Z" fill="#3A3A3A"/>
</g>
<defs>
<clipPath id="clip0">
<rect width="171" height="195" fill="white"/>
</clipPath>
</defs>
</svg>

<svg width="171" height="195" fill="none" xmlns="http://www.w3.org/2000/svg"><g clip-path="url(#clip0)"><path d="M77.6941 174.636c-.104-.13-10.495-12.996-12.609-15.76-1.321-1.727-3.307-2.678-5.593-2.678-2.56 0-4.836 1.17-5.512 1.553l-5.486 2.743c-1.773-.479-5.587-1.95-9.28-6.268-3.284-3.839-3.261-8.986-3.086-11.099l5.893-5.893c3.093-2.717 2.452-6.516 1.246-8.431l-.219-.311s-12.862-16.221-14.666-18.498c-.989-1.249-2.475-1.938-4.184-1.938-2.849 0-5.879 1.975-6.756 2.592-10.88499 7.749-11.58599 14.562-11.63099 15.313l-.024.414.074.409c6.41199 35.726 26.02599 51.137 35.45299 58.543 1.148.901 2.14 1.681 2.854 2.306 6.563 5.747 13.762 6.367 16.553 6.367 2.375-.001 4.48-.405 6.089-1.171 4.366-2.078 9.425-8.01 10.872-9.778 2.501-3.059 1.283-6.599.168-8.208l-.156-.207zm-13.893 11.873c-.499.237-1.57.491-3.081.491-1.56 0-7.032-.334-11.944-4.632-.854-.747-1.913-1.579-3.139-2.543-8.694-6.83-26.729-21.001-32.78-53.684.289-.979 1.829-4.938 8.62-9.771.652-.453 1.508-.904 2.119-1.142 2.831 3.572 11.41 14.392 13.502 17.03l-7.528 7.527-.203 1.055c-.081.422-1.911 10.409 4.527 17.937 6.286 7.349 13.25 8.667 14.583 8.856l1.082.154 7.644-3.823.218-.118c.281-.167 1.335-.648 2.071-.648.036 0 .065.001.088.003 2.149 2.8 11.105 13.897 12.5 15.624.001.004.002.007.004.01-2.562 3.095-6.173 6.669-8.283 7.674zM137.85 65.824c5.512-5.177 7.156-11.975 5.033-20.783-.207-.856-.848-1.541-1.689-1.802-.842-.262-1.76-.06-2.414.53l-8.221 7.403c-1.438-.795-3.676-2.451-4.465-5.33l6.803-6.729c.947-.938.992-2.453.104-3.446l-.186-.207c-.193-.216-.422-.396-.678-.533-.16-.086-3.988-2.116-8.824-2.116-4.709 0-8.859 1.921-12.002 5.556-6 6.938-4.557 15.042-3.543 18.471l-3.488 3.488-10.2838-9.236 4.717-3.266L78.6712 34.1l-10.601 10.603 13.724 20.041 3.266-4.717 9.237 10.282-3.295 3.294c-1.5-.478-3.883-1.052-6.663-1.052-5.429 0-10.236 2.174-13.962 6.359-.271.329-6.599 8.165-2.751 18.621.284.773.931 1.356 1.729 1.56.796.203 1.645.001 2.264-.541l8.295-7.259c1.323.567 3.622 2.08 4.659 5.925l-7.384 7.516c-.634.645-.87 1.582-.617 2.45.253.868.954 1.532 1.835 1.737.11.025 2.724.623 6.175.623 6.84 0 12.112-2.271 15.245-6.567 3.3628-4.613 4.0938-9.433 3.9938-13.088l16.217 16.217.172.158c1.521 1.26 4.318 2.725 7.451 2.725 2.227 0 4.625-.741 6.852-2.824l5.518-5.516.102-.104c5.012-5.358 2.258-11.698.1-14.302l-16.945-16.959c1.027.106 2.148.181 3.322.181 4.888-.001 8.669-1.225 11.24-3.639zM84.5512 51.978l-2.734 3.949-7.276-10.625 4.731-4.732 10.625 7.276-3.95 2.734 14.7918 13.286-4.0938 4.093 1.191-1.192-13.285-14.789zm13.562 33.524c.109.313 2.6148 7.746-2.328 14.527-2.77 3.798-7.748 4.526-11.4 4.512l4.703-4.787c.566-.576.82-1.391.68-2.187-1.791-10.147-9.745-11.484-10.083-11.536-.729-.11-1.471.104-2.027.589l-6.204 5.428c-.522-5.56 2.413-9.489 2.759-9.932 2.721-3.03 6.127-4.566 10.125-4.566 3.515 0 6.231 1.211 6.249 1.22.953.439 2.076.241 2.818-.501l18.9998-19c.725-.724.934-1.816.527-2.756-.035-.083-3.494-8.34 2.158-14.876 2.195-2.539 4.961-3.826 8.221-3.826 1.23 0 2.383.183 3.365.421l-5.047 4.993c-.551.544-.818 1.312-.725 2.08 1.012 8.3 8.969 11.077 9.307 11.191.855.288 1.801.094 2.473-.511l6.049-5.447c.373 4.864-1.02 8.554-4.309 11.642-2.008 1.887-5.359 2.283-7.818 2.283-3.689 0-6.951-.865-6.982-.873-.865-.236-1.795.014-2.43.653L98.6942 82.91c-.671.677-.893 1.69-.581 2.592zm5.5018 1.842v0zm-.181-1.121c.01.052.02.104.029.158-.01-.052-.02-.107-.029-.158zm33.091 10.856l-5.479 5.476c-3.248 2.98-6.9.432-7.576-.087l-18.643-18.645 14.941-15.075-2.035 2.053 18.707 18.706c.46.592 3.097 4.287.085 7.572zm-15.209-28.054c.008.001.016.002.023.004-.007-.002-.015-.003-.023-.004zm-.843-.143c.02.004.045.008.066.012-.023-.004-.045-.008-.066-.012z" fill="#fff"/><path d="M104.162 6.00201c-36.4078 0-65.9218 29.51399-65.9218 65.92199 0 33.517 25.02 61.172 57.398 65.354v26.224s57.4388-21.243 71.9688-73.622c.078-.283.139-.538.211-.812.113-.424.225-.85.33-1.277.064-.263.119-.514.178-.769 1.137-4.851 1.758-9.901 1.758-15.098 0-36.408-29.514-65.92199-65.922-65.92199zM161.51 85.424l-.006.027-.006.027-.029.13c-.039.17-.076.339-.119.515-.094.376-.191.751-.301 1.161l-.104.4c-.025.108-.053.216-.082.324-5.564 20.056-18.52 37.7-38.506 52.442-7.373 5.438-14.408 9.464-19.719 12.175V131.123l-6.1038-.788c-29.243-3.777-51.295-28.889-51.295-58.412 0-32.49 26.432-58.922 58.9218-58.922 32.488 0 58.922 26.432 58.922 58.922.001 4.509-.528 9.051-1.573 13.501z" fill="#fff"/><path d="M54.583 187.998c-2.791 0-9.9891-.62-16.5541-6.364-.714-.625-1.706-1.404-2.854-2.306-9.4259-7.406-29.04095-22.817-35.45295-58.543l-.074-.409.024-.414c.044-.752.746-7.564 11.63095-15.313.877-.617 3.907-2.592 6.756-2.592 1.708 0 3.194.688 4.184 1.938 1.804 2.277 14.6661 18.498 14.6661 18.498l.2189.311c1.2061 1.915 1.847 5.714-1.2459 8.431l-5.8931 5.893c-.175 2.112-.1979 7.26 3.0861 11.099 3.692 4.317 7.507 5.789 9.2799 6.268l5.4861-2.743c.6759-.383 2.9519-1.553 5.512-1.553 2.286 0 4.272.951 5.5929 2.678 2.114 2.764 12.504 15.63 12.609 15.76l.155.207c1.115 1.609 2.333 5.149-.168 8.208-1.447 1.769-6.505 7.7-10.872 9.778-1.6069.763-3.7119 1.167-6.0869 1.168zM6.71995 120.14C12.7709 152.823 30.806 166.994 39.5 173.824c1.226.964 2.285 1.796 3.139 2.543 4.9119 4.298 10.3839 4.632 11.944 4.632 1.511 0 2.582-.254 3.081-.491 2.11-1.005 5.7219-4.579 8.2839-7.674-.001-.003-.003-.006-.004-.01-1.394-1.727-10.351-12.824-12.4999-15.624-.023-.002-.0531-.003-.0881-.003-.736 0-1.79.481-2.0709.648l-.218.118-7.644 3.823-1.082-.154c-1.3331-.189-8.2971-1.508-14.5831-8.856-6.438-7.527-4.6079-17.515-4.527-17.937l.203-1.055 7.528-7.527c-2.092-2.639-10.671-13.458-13.502-17.03-.611.237-1.467.688-2.119 1.142-6.79295 4.833-8.33295 8.792-8.62095 9.771z" fill="#3A3A3A"/><path d="M78.443 103.54c-3.452 0-6.065-.598-6.175-.623-.881-.205-1.583-.869-1.835-1.737-.252-.868-.017-1.806.617-2.45l7.384-7.516c-1.037-3.845-3.336-5.357-4.659-5.925l-8.295 7.259c-.62.542-1.468.744-2.264.541-.798-.203-1.444-.787-1.729-1.559-3.848-10.457 2.48-18.293 2.751-18.622 3.726-4.185 8.533-6.359 13.962-6.359 2.78 0 5.162.574 6.663 1.052l16.766-16.765c-1.013-3.43-2.457-11.534 3.543-18.471 3.143-3.634 7.293-5.556 12.002-5.556 4.837 0 8.664 2.029 8.825 2.116.255.137.484.317.677.533l.186.207c.89.993.845 2.508-.104 3.446l-6.803 6.729c.789 2.879 3.028 4.535 4.465 5.33l8.222-7.403c.654-.59 1.572-.792 2.413-.53.842.261 1.483.945 1.69 1.802 2.123 8.809.478 15.606-5.033 20.783-2.57 2.414-6.353 3.638-11.242 3.638-2.789 0-5.324-.407-6.839-.714L97.127 79.399c.729 3.181 1.631 10.62-3.439 17.574-3.133 4.296-8.405 6.567-15.245 6.567zm-.196-5.001c3.651.015 8.631-.714 11.4-4.512 4.944-6.781 2.438-14.214 2.329-14.527-.313-.902-.091-1.915.582-2.593l18.5-18.667c.634-.639 1.564-.889 2.43-.653.03.008 3.293.873 6.982.873 2.458 0 5.811-.396 7.818-2.283 3.288-3.088 4.681-6.778 4.309-11.642l-6.049 5.447c-.672.604-1.617.799-2.473.511-.338-.114-8.295-2.891-9.307-11.191-.094-.768.173-1.536.724-2.08l5.047-4.993c-.981-.238-2.135-.421-3.365-.421-3.259 0-6.024 1.288-8.221 3.826-5.651 6.536-2.192 14.793-2.157 14.876.405.94.196 2.033-.528 2.756l-19 19c-.741.742-1.865.94-2.817.501-.018-.008-2.735-1.22-6.25-1.22-3.998 0-7.404 1.536-10.125 4.566-.347.442-3.282 4.372-2.759 9.932l6.204-5.428c.556-.486 1.298-.7 2.027-.589.337.052 8.291 1.389 10.082 11.536.141.796-.112 1.61-.679 2.187l-4.704 4.788z" fill="#F0C42E"/><path d="M78.9209 54.025l9.237 10.282 3.54-3.541-13.285-14.79-2.735 3.949-7.276-10.624 4.732-4.732 10.625 7.276-3.95 2.734 14.791 13.286 3.541-3.541-10.283-9.236 4.717-3.266-20.042-13.724-10.601 10.603 13.724 20.041 3.265-4.717zM117.147 63.28c-1.413-.146-2.64-.356-3.517-.534l-2.034 2.053 18.706 18.706c.46.592 3.097 4.287.084 7.572l-5.478 5.476c-3.248 2.98-6.901.432-7.576-.087L98.69 77.821l-1.563 1.578c.245 1.07.505 2.63.555 4.485l16.217 16.218.173.158c1.521 1.26 4.318 2.725 7.45 2.725 2.228 0 4.625-.741 6.853-2.824l5.518-5.516.102-.103c5.012-5.358 2.257-11.699.099-14.303L117.147 63.28z" fill="#3A3A3A"/><path d="M98.0231 7c32.4889 0 58.9219 26.432 58.9219 58.922 0 4.508-.529 9.05-1.573 13.5l-.006.027-.007.027-.029.13c-.038.17-.076.339-.118.515-.094.376-.191.751-.302 1.161l-.103.4c-.026.108-.054.216-.083.324-5.564 20.056-18.52 37.7-38.506 52.442-7.373 5.438-14.408 9.464-19.7189 12.175V125.121l-6.1041-.788c-29.243-3.777-51.2939-28.889-51.2939-58.412C39.1021 33.432 65.5341 7 98.0231 7zm0-7c-36.407 0-65.921 29.514-65.921 65.922 0 33.517 25.02 61.172 57.3979 65.354V157.5s57.439-21.243 71.97-73.622c.078-.283.138-.538.21-.812.114-.424.225-.85.331-1.277.063-.263.119-.514.177-.769 1.138-4.851 1.758-9.901 1.758-15.098C163.945 29.514 134.432 0 98.0231 0z" fill="#3A3A3A"/></g><defs><clipPath id="clip0"><path fill="#fff" d="M0 0h171v195H0z"/></clipPath></defs></svg>
